src/images/icons/employee-case-cup.svg

<svg width="126" height="103" viewBox="0 0 126 103" fill="none" xmlns="http://www.w3.org/2000/svg">
<path d="M30.8121 17.4573C30.8121 17.4573 24.6615 5.38593 14.5978 7.0783C7.6568 8.24555 2.86402 15.1413 8.3942 24.3576C11.3776 29.3296 16.9902 32.254 21.7963 37.9536C25.6618 42.5377 27.4606 50.8984 30.9426 50.2868C31.4247 50.2021 31.5623 49.663 31.5623 49.663M29.635 25.774C29.635 25.774 27.7351 25.6189 26.7862 25.1709C23.952 23.8328 26.0387 20.329 25.282 17.2875C24.4073 13.7718 21.7588 12.1856 17.5983 12.1562C14.8052 12.1364 12.2953 14.0027 11.7126 17.4573C11.13 20.912 14.106 26.692 21.0605 29.6977C26.3676 31.9915 28.3064 34.2901 29.0446 36.4404" stroke="#3C3D75"/>
<path d="M98.6018 81.2006C98.6018 81.2006 100.284 84.1656 100.763 86.2601C102.582 94.2091 83.4609 100.536 67.3375 90.8624C51.214 81.1886 40.3955 80.2872 43.3087 75.5526C44.4013 73.7769 46.6601 71.9498 46.6601 71.9498" stroke="#3C3D75"/>
<path d="M134.146 24.4579C134.146 24.4579 132.049 45.9272 124.636 59.5054C117.468 72.6331 102.421 79.7366 97.8048 81.2838C94.3426 82.4441 85.918 84.2843 71.377 82.1618C57.2988 80.1069 49.6808 74.6092 46.8348 72.358C42.1795 68.6757 32.7283 59.9323 29.851 42.9128C27.4701 28.8298 32.649 6.85707 32.649 6.85707" stroke="#3C3D75"/>
<mask id="mask0" mask-type="alpha" maskUnits="userSpaceOnUse" x="20" y="6" width="115" height="86">
<path d="M79.3956 22.1855C128.606 30.8001 134.073 25.6662 134.073 25.6662C134.073 25.6662 132.049 45.9273 124.635 59.5054C117.468 72.6331 102.421 79.7367 97.8045 81.2838C94.3424 82.4442 85.9178 84.2844 71.3767 82.1618C57.2986 80.1069 49.6806 74.6092 46.8346 72.358C42.1792 68.6757 32.728 59.9323 29.8507 42.9128C27.4699 28.8299 32.6487 6.8571 32.6487 6.8571C32.6487 6.8571 37.7995 14.9039 79.3956 22.1855Z" fill="#FF9090"/>
</mask>
<g mask="url(#mask0)">
<path d="M56.9126 17.1533L57.5281 14.1076L59.4346 11.9377L58.5359 8.48567L56.6405 -8.48079L55.3386 -11.2458L56.4943 -16.4937L58.545 -18.6766L62.4328 -47.3337L63.4493 -50.5083L63.1596 -47.5229L64.0411 -41.1564L62.4119 -28.4133L61.854 -17.8891L60.5026 -16.3733L59.8759 -10.5841L63.3946 14.1076L62.7302 16.0266L62.7302 17.3163M55.2202 36.8528L56.2917 47.3795C56.2917 47.3795 56.601 51.7986 58.5359 53.3912C60.4099 54.9337 63.9842 54.613 66.1837 53.5865C66.9116 53.2468 68.3697 52.418 69.6456 51.7446C70.4535 51.3183 71.8383 48.3939 71.8383 48.3939L73.5694 44.8163L72.7616 40.4309L77.724 44.5855L78.5318 49.6634L76.1083 52.8197L73.5694 54.395L57.455 63.5718L53.5918 57.3027L51.1401 55.71L50.8348 49.6634L49.7962 47.2392L46.4494 24.0428L47.3726 22.3117L46.7793 17.3163M49.3979 18.1494L49.7962 22.3117L48.7575 24.0428L49.7962 33.2752L55.2059 26.6186L56.3787 20.1143" stroke="#3C3D75"/>
<path d="M56.3013 20.115C53.8537 19.4859 51.545 18.8527 49.3978 18.2228M71.7749 23.6443C74.9891 24.296 78.3209 24.926 81.7396 25.5244C109.797 30.4359 133.076 31.3645 133.735 27.5985C133.838 27.0116 134.352 24.0753 134.352 24.0753C134.352 24.0753 107.812 16.0325 84.127 11.8864C60.4423 7.74023 32.6687 6.74371 32.6687 6.74371C32.6687 6.74371 32.2343 9.22538 32.1316 9.81227C31.7943 11.7386 37.4408 14.5202 46.7927 17.4354" stroke="#3C3D75"/>
</g>
<path d="M58.2321 17.3364L58.5761 17.4252L58.6054 17.7792L59.2978 26.1295L59.3066 26.2358L59.2713 26.3364L55.8136 36.1914L68.6842 31.7647L68.6842 28.9594L68.6842 28.5822L69.0469 28.4786L69.6029 28.3198L69.6283 28.245C69.6983 28.0394 69.7985 27.746 69.9195 27.394C70.1615 26.6903 70.4866 25.7519 70.8192 24.8148C71.1513 23.8786 71.4923 22.9395 71.7656 22.2359C71.9016 21.8855 72.024 21.5855 72.1217 21.3714C72.1694 21.2669 72.2178 21.1684 72.2637 21.0917C72.2849 21.0564 72.3187 21.0033 72.3637 20.9537C72.3854 20.9299 72.4281 20.8862 72.4913 20.8482C72.5505 20.8125 72.6893 20.7455 72.869 20.785C75.6023 21.3848 76.5255 21.5273 78.0308 21.7595C78.9283 21.898 80.0328 22.0684 81.8512 22.3868C95.8625 24.8395 108.796 26.2163 118.299 26.5109C123.054 26.6582 126.931 26.5339 129.649 26.1442C131.012 25.9488 132.053 25.6907 132.761 25.3827C133.499 25.0615 133.725 24.7535 133.762 24.5476C133.798 24.3402 133.692 23.9804 133.12 23.4434C132.57 22.9268 131.693 22.3487 130.495 21.724C128.105 20.4781 124.546 19.1025 120.068 17.684C111.117 14.8492 98.5735 11.8674 84.5598 9.41418C70.5461 6.96101 57.7351 5.50434 48.3542 5.13014C43.6601 4.94289 39.8452 5.02763 37.1743 5.38769C35.8352 5.56822 34.8143 5.81416 34.1213 6.11309C33.4009 6.42386 33.1794 6.72639 33.1431 6.9338C33.1176 7.07939 33.1548 7.29696 33.3786 7.61135C33.6024 7.92563 33.9796 8.28737 34.5291 8.68914C35.6259 9.49103 37.3141 10.3846 39.5334 11.3352C43.9646 13.2332 50.4156 15.3176 58.2321 17.3364Z" stroke="#3C3D75"/>
</svg>

<svg xmlns="http://www.w3.org/2000/svg" width="126" height="103" fill="none"><path stroke="#3C3D75" d="M30.812 17.457S24.662 5.386 14.598 7.078c-6.941 1.168-11.734 8.063-6.204 17.28 2.984 4.972 8.596 7.896 13.402 13.596 3.866 4.584 5.665 12.944 9.147 12.333.482-.085.62-.624.62-.624m-1.928-23.889s-1.9-.155-2.849-.603c-2.834-1.338-.747-4.842-1.504-7.883-.875-3.516-3.523-5.102-7.684-5.132-2.793-.02-5.303 1.847-5.885 5.301-.583 3.455 2.393 9.235 9.348 12.24 5.307 2.294 7.245 4.593 7.984 6.743"/><path stroke="#3C3D75" d="M98.602 81.2s1.682 2.966 2.161 5.06c1.819 7.95-17.302 14.276-33.425 4.602-16.124-9.673-26.942-10.575-24.03-15.31 1.093-1.775 3.352-3.602 3.352-3.602"/><path stroke="#3C3D75" d="M134.146 24.458s-2.097 21.47-9.51 35.047c-7.168 13.128-22.215 20.232-26.831 21.779-3.462 1.16-11.887 3-26.428.878-14.078-2.055-21.696-7.553-24.542-9.804-4.656-3.682-14.107-12.426-16.984-29.445-2.38-14.083 2.798-36.056 2.798-36.056"/><mask id="a" width="115" height="86" x="20" y="6" maskUnits="userSpaceOnUse"><path fill="#FF9090" d="M79.396 22.186c49.21 8.614 54.677 3.48 54.677 3.48s-2.024 20.261-9.438 33.84c-7.167 13.127-22.214 20.23-26.83 21.778-3.463 1.16-11.887 3-26.428.878-14.078-2.055-21.696-7.553-24.542-9.804-4.656-3.682-14.107-12.426-16.984-29.445C27.47 28.83 32.649 6.857 32.649 6.857s5.15 8.047 46.747 15.329z"/></mask><g stroke="#3C3D75" mask="url(#a)"><path d="M56.913 17.153l.615-3.045 1.907-2.17-.9-3.452-1.894-16.967-1.302-2.765 1.155-5.248 2.051-2.183 3.888-28.657 1.016-3.174-.29 2.985.882 6.367-1.63 12.743-.557 10.524-1.351 1.516-.627 5.789 3.519 24.692-.665 1.919v1.29m-7.51 19.536l1.072 10.526s.309 4.42 2.244 6.012c1.874 1.543 5.448 1.222 7.648.196.728-.34 2.186-1.169 3.462-1.842.808-.427 2.192-3.351 2.192-3.351l1.731-3.578-.807-4.385 4.962 4.155.808 5.077-2.424 3.157-2.539 1.575-16.114 9.177-3.863-6.27-2.452-1.592-.305-6.047-1.039-2.424-3.347-23.196.924-1.731-.594-4.996m2.619.833l.398 4.163-1.038 1.73 1.038 9.233 5.41-6.656 1.173-6.505"/><path d="M56.301 20.115a212.834 212.834 0 01-6.903-1.892m22.377 5.421c3.214.652 6.546 1.282 9.965 1.88 28.057 4.912 51.336 5.84 51.995 2.075l.617-3.524s-26.54-8.043-50.225-12.189C60.442 7.74 32.669 6.744 32.669 6.744l-.537 3.068c-.338 1.927 5.309 4.708 14.66 7.623"/></g><path stroke="#3C3D75" d="M58.232 17.336l.344.09.03.353.692 8.35.009.107-.036.1-3.457 9.855 12.87-4.426v-3.183l.363-.103.556-.16.025-.074a310.01 310.01 0 011.191-3.43c.332-.936.673-1.876.947-2.58.136-.35.258-.65.356-.864.047-.104.096-.203.142-.28a.88.88 0 01.1-.137.572.572 0 01.127-.106.516.516 0 01.378-.063c2.733.6 3.656.742 5.162.974.897.139 2.002.31 3.82.628 14.011 2.453 26.945 3.83 36.448 4.124 4.755.147 8.632.023 11.35-.367 1.363-.195 2.404-.453 3.112-.761.738-.322.964-.63 1.001-.835.036-.208-.07-.568-.642-1.105-.55-.516-1.427-1.094-2.625-1.719-2.39-1.246-5.949-2.622-10.427-4.04-8.951-2.835-21.495-5.817-35.508-8.27-14.014-2.453-26.825-3.91-36.206-4.284-4.694-.187-8.509-.102-11.18.258-1.339.18-2.36.426-3.053.725-.72.31-.942.613-.978.82-.025.146.012.364.236.678.223.315.6.676 1.15 1.078 1.097.802 2.785 1.696 5.004 2.646 4.432 1.898 10.883 3.983 18.7 6.001z"/></svg>
